contributed-vectors/microsoft_news.svg

<?xml version="1.0" encoding="UTF-8" standalone="no"?>
<svg
   width="192"
   height="192"
   viewBox="0 0 192 192"
   fill="none"
   version="1.1"
   id="svg16"
   sodipodi:docname="microsoft_news.svg"
   xml:space="preserve"
   inkscape:version="1.2 (dc2aedaf03, 2022-05-15)"
   xmlns:inkscape="http://www.inkscape.org/namespaces/inkscape"
   xmlns:sodipodi="http://sodipodi.sourceforge.net/DTD/sodipodi-0.dtd"
   xmlns="http://www.w3.org/2000/svg"
   xmlns:svg="http://www.w3.org/2000/svg"><defs
     id="defs20" /><sodipodi:namedview
     id="namedview18"
     pagecolor="#505050"
     bordercolor="#eeeeee"
     borderopacity="1"
     inkscape:showpageshadow="0"
     inkscape:pageopacity="0"
     inkscape:pagecheckerboard="0"
     inkscape:deskcolor="#505050"
     showgrid="false"
     inkscape:zoom="2.8284271"
     inkscape:cx="66.114484"
     inkscape:cy="79.549513"
     inkscape:window-width="1884"
     inkscape:window-height="1052"
     inkscape:window-x="36"
     inkscape:window-y="0"
     inkscape:window-maximized="1"
     inkscape:current-layer="svg16" /><path
     d="M162.505 149.003V42.0371C162.505 36.5143 158.027 32.0371 152.505 32.0371L22.3652 32.0371C16.8424 32.0371 12.3652 36.5143 12.3652 42.0371V149.001C12.3652 154.523 16.8424 159.001 22.3653 159.001H171.07V149.003H162.505Z"
     fill="#E85E5C"
     id="path2"
     style="fill:#ff837d;fill-opacity:1" /><path
     d="M 179.635,150.47 V 59.75 c 0,-5.5228 -4.477,-10 -10,-10 h -7.13 v 100.72 c 0,4.712 3.888,8.531 8.599,8.531 4.711,0 8.531,-3.819 8.531,-8.531 z"
     fill="#B02A3C"
     id="path4"
     style="fill:#ba6561;fill-opacity:1"
     sodipodi:nodetypes="ssscsss" /><path
     d="M29.4951 65.2887H146.382C148.052 65.2887 149.405 63.9353 149.405 62.2658V54.2046C149.405 52.5351 148.052 51.1816 146.382 51.1816L29.4951 51.1816C27.8256 51.1816 26.4721 52.5351 26.4721 54.2046V62.2658C26.4721 63.9353 27.8256 65.2887 29.4951 65.2887Z"
     fill="white"
     id="path6" /><path
     d="M29.4951 135.825H79.8775C81.547 135.825 82.9004 134.471 82.9004 132.802V82.4194C82.9004 80.7499 81.547 79.3965 79.8774 79.3965H29.4951C27.8256 79.3965 26.4722 80.7499 26.4722 82.4194V132.802C26.4722 134.471 27.8256 135.825 29.4951 135.825Z"
     fill="white"
     id="path8" /><path
     d="M94.9921 93.5035H149.405V82.4194C149.405 80.7499 148.052 79.3965 146.382 79.3965H98.015C96.3455 79.3965 94.9921 80.7499 94.9921 82.4194V93.5035Z"
     fill="white"
     id="path10" /><path
     opacity="0.7"
     d="M94.9921 107.609H149.405V93.502H94.9921V107.609Z"
     fill="white"
     id="path12" /><path
     opacity="0.3"
     d="M98.015 121.716H146.382C148.052 121.716 149.405 120.363 149.405 118.693V107.609H94.9921V118.693C94.9921 120.363 96.3455 121.716 98.015 121.716Z"
     fill="white"
     id="path14" /><path
     d="M 162.505,-45.437678 V -152.40358 c 0,-5.5228 -4.478,-10 -10,-10 H 22.3652 c -5.5228,0 -10,4.4772 -10,10 v 106.963902 c 0,5.522 4.4772,10 10.0001,10 H 171.07 v -9.998 z"
     fill="#e85e5c"
     id="path249" /><path
     d="m 179.635,-43.970678 v -90.720002 c 0,-5.5228 -4.477,-10 -10,-10 h -7.062 v 100.720002 c 0,4.712 3.82,8.531 8.531,8.531 4.711,0 8.531,-3.819 8.531,-8.531 z"
     fill="#b02a3c"
     id="path251" /><path
     d="M 29.4951,-129.15198 H 146.382 c 1.67,0 3.023,-1.3534 3.023,-3.0229 v -8.0612 c 0,-1.6695 -1.353,-3.023 -3.023,-3.023 H 29.4951 c -1.6695,0 -3.023,1.3535 -3.023,3.023 v 8.0612 c 0,1.6695 1.3535,3.0229 3.023,3.0229 z"
     fill="#ffffff"
     id="path253" /><path
     d="m 29.4951,-58.615678 h 50.3824 c 1.6695,0 3.0229,-1.354 3.0229,-3.023 v -50.382602 c 0,-1.6695 -1.3534,-3.0229 -3.023,-3.0229 H 29.4951 c -1.6695,0 -3.0229,1.3534 -3.0229,3.0229 v 50.382602 c 0,1.669 1.3534,3.023 3.0229,3.023 z"
     fill="#ffffff"
     id="path255" /><path
     d="m 94.9921,-100.93718 h 54.4129 v -11.0841 c 0,-1.6695 -1.353,-3.0229 -3.023,-3.0229 H 98.015 c -1.6695,0 -3.0229,1.3534 -3.0229,3.0229 z"
     fill="#ffffff"
     id="path257" /><path
     opacity="0.7"
     d="M 94.9921,-86.831678 H 149.405 V -100.93868 H 94.9921 Z"
     fill="#ffffff"
     id="path259" /><path
     opacity="0.3"
     d="m 98.015,-72.724678 h 48.367 c 1.67,0 3.023,-1.353 3.023,-3.023 v -11.084 H 94.9921 v 11.084 c 0,1.67 1.3534,3.023 3.0229,3.023 z"
     fill="#ffffff"
     id="path261" /></svg>

<svg xmlns="http://www.w3.org/2000/svg" xml:space="preserve" width="192" height="192" fill="none"><path fill="#E85E5C" d="M162.505 149.003V42.037c0-5.523-4.478-10-10-10H22.365c-5.523 0-10 4.477-10 10v106.964c0 5.522 4.477 10 10 10H171.07v-9.998h-8.565Z" style="fill:#ff837d;fill-opacity:1"/><path fill="#B02A3C" d="M179.635 150.47V59.75c0-5.523-4.477-10-10-10h-7.13v100.72c0 4.712 3.888 8.531 8.599 8.531a8.531 8.531 0 0 0 8.531-8.531z" style="fill:#ba6561;fill-opacity:1"/><path fill="#fff" d="M29.495 65.289h116.887a3.023 3.023 0 0 0 3.023-3.023v-8.061a3.023 3.023 0 0 0-3.023-3.023H29.495a3.023 3.023 0 0 0-3.023 3.023v8.06a3.023 3.023 0 0 0 3.023 3.024ZM29.495 135.825h50.382a3.023 3.023 0 0 0 3.023-3.023V82.419a3.023 3.023 0 0 0-3.023-3.022H29.495a3.023 3.023 0 0 0-3.023 3.022v50.383a3.023 3.023 0 0 0 3.023 3.023ZM94.992 93.504h54.413V82.418a3.023 3.023 0 0 0-3.023-3.022H98.015a3.023 3.023 0 0 0-3.023 3.022v11.085Z"/><path fill="#fff" d="M94.992 107.609h54.413V93.502H94.992v14.107Z" opacity=".7"/><path fill="#fff" d="M98.015 121.716h48.367a3.022 3.022 0 0 0 3.023-3.023v-11.084H94.992v11.084a3.023 3.023 0 0 0 3.023 3.023Z" opacity=".3"/><path fill="#e85e5c" d="M162.505-45.438v-106.966c0-5.522-4.478-10-10-10H22.365c-5.523 0-10 4.478-10 10V-45.44c0 5.522 4.477 10 10 10H171.07v-9.998z"/><path fill="#b02a3c" d="M179.635-43.97v-90.72c0-5.523-4.477-10-10-10h-7.062v100.72a8.531 8.531 0 0 0 17.062 0z"/><path fill="#fff" d="M29.495-129.152h116.887a3.023 3.023 0 0 0 3.023-3.023v-8.061a3.023 3.023 0 0 0-3.023-3.023H29.495a3.023 3.023 0 0 0-3.023 3.023v8.061a3.023 3.023 0 0 0 3.023 3.023zM29.495-58.616h50.382a3.023 3.023 0 0 0 3.023-3.023v-50.382a3.023 3.023 0 0 0-3.023-3.023H29.495a3.023 3.023 0 0 0-3.023 3.023v50.382a3.023 3.023 0 0 0 3.023 3.023zM94.992-100.937h54.413v-11.084a3.023 3.023 0 0 0-3.023-3.023H98.015a3.023 3.023 0 0 0-3.023 3.023z"/><path fill="#fff" d="M94.992-86.832h54.413v-14.107H94.992Z" opacity=".7"/><path fill="#fff" d="M98.015-72.725h48.367a3.022 3.022 0 0 0 3.023-3.023v-11.084H94.992v11.084a3.023 3.023 0 0 0 3.023 3.023z" opacity=".3"/></svg>
